icon-themes/sifr_svg/cmd/32/exportdirecttoepub.svg

<svg viewBox="0 0 32 32" xmlns="http://www.w3.org/2000/svg"><path d="m7 2c-1.108 0-2 .892-2 2v24c0 1.108.892 2 2 2h18c1.108 0 2-.892 2-2v-18c0-2-4-8-8-8zm0 2h12v7h6v17h-18zm9 8c-.259774.0041-.50774.109213-.691406.3l-6 6c-.41.39053-.41 1 0 1.4l6 6c.39053.4 1 .4 1.4 0l6-6c1-.94-.471554-2.395742-1.4-1.4l-5.308594 5.285938-4.6-4.585938 4.6-4.6 1.585938 1.6-2.285938 2.3c-1 .94.471554 2.395742 1.4 1.4l3-3c.4-.39053.4-1 0-1.4l-3-3c-.184292-.2-.445022-.3-.7-.3z" fill="#555753"/></svg>

<svg xmlns="http://www.w3.org/2000/svg" viewBox="0 0 32 32">
  <path
     style="fill:#555753"
     d="M 7,2 C 5.892,2 5,2.892 5,4 v 24 c 0,1.108 0.892,2 2,2 h 18 c 1.108,0 2,-0.892 2,-2 V 10 C 27,8 23,2 19,2 Z m 0,2 h 12 v 7 h 6 V 28 H 7 Z m 9,8 c -0.259774,0.0041 -0.50774,0.109213 -0.691406,0.3 l -6,6 c -0.41,0.39053 -0.41,1 0,1.4 l 6,6 c 0.39053,0.4 1,0.4 1.4,0 l 6,-6 c 1,-0.94 -0.471554,-2.395742 -1.4,-1.4 L 16,23.585938 11.4,19 16,14.4 17.585938,16 15.3,18.3 c -1,0.94 0.471554,2.395742 1.4,1.4 l 3,-3 c 0.4,-0.39053 0.4,-1 0,-1.4 l -3,-3 C 16.515708,12.1 16.254978,12 16,12 Z"
     />
</svg>
